assets/logos/android.svg

<?xml version="1.0" encoding="UTF-8"?>
<svg width="1e3" height="222.64" version="1.1" viewBox="0 0 1e3 222.64" xmlns="http://www.w3.org/2000/svg"><g transform="translate(-282.22 -311.27)"><g transform="matrix(21.017 0 0 -21.017 367.58 493.02)"><path d="m0 0c-1.121 0-2.028.937-2.028 2.102 0 1.143.907 2.094 2.028 2.094.745 0 1.49-.347 1.807-.981.022-.044.051-.103.051-.177v-1.858c0-.037-.022-.118-.037-.14-.346-.634-1.054-1.04-1.821-1.04m3.68-1.6v7.374h-1.822v-.619c-.509.494-1.202.766-2.057.766-2.087 0-3.672-1.696-3.672-3.819 0-2.132 1.585-3.85 3.672-3.85.855 0 1.548.288 2.057.782v-.634h1.822zm7.912 0v3.989c0 1.962-1.526 3.532-3.473 3.532-1.954 0-3.473-1.57-3.473-3.532v-3.989h1.821v3.989c0 .966.679 1.704 1.652 1.704.966 0 1.652-.738 1.652-1.704v-3.989h1.821zm4.631 1.6c-1.121 0-2.028.937-2.028 2.102 0 1.143.907 2.094 2.028 2.094.745 0 1.453-.369 1.807-.981.022-.044.051-.103.051-.177v-1.866c0-.037-.022-.11-.036-.132-.347-.634-1.055-1.04-1.822-1.04m3.68-1.6v9.586h-1.822v-2.831c-.508.494-1.202.789-2.057.789-2.087 0-3.672-1.719-3.672-3.842 0-2.132 1.585-3.85 3.672-3.85.855 0 1.549.288 2.057.782v-.634h1.822zm2.787 0v3.938c0 1.165.612 1.784 1.777 1.784v1.799c-2.345 0-3.598-1.246-3.598-3.583v-3.938h1.821zm5.759 1.688c-1.106 0-2.005.9-2.005 2.014 0 1.106.899 2.005 2.005 2.005 1.121 0 2.014-.899 2.014-2.005 0-1.114-.893-2.014-2.014-2.014m0-1.836c2.132 0 3.857 1.718 3.857 3.85 0 2.123-1.725 3.819-3.857 3.819-2.123 0-3.849-1.696-3.849-3.819 0-2.132 1.726-3.85 3.849-3.85m5.597 8.082c.583 0 1.055.48 1.055 1.062 0 .59-.472 1.062-1.055 1.062-.582 0-1.054-.472-1.054-1.062 0-.582.472-1.062 1.054-1.062m.907-.56h-1.822v-7.374h1.822v7.374zm4.698-5.774c-1.121 0-2.028.937-2.028 2.102 0 1.143.907 2.094 2.028 2.094.745 0 1.452-.369 1.806-.981.023-.044.052-.103.052-.177v-1.873c0-.037-.022-.103-.037-.125-.346-.634-1.054-1.04-1.821-1.04m3.679-1.6v9.586h-1.821v-2.831c-.509.494-1.202.766-2.057.766-2.087 0-3.673-1.696-3.673-3.819 0-2.132 1.586-3.857 3.673-3.857.855 0 1.548.295 2.057.789v-.634h1.821z" fill="#fff"/></g></g></svg>

<?xml version="1.0" encoding="utf-8"?>
<!-- Generator: Adobe Illustrator 28.6.0, SVG Export Plug-In . SVG Version: 9.03 Build 54939)  -->
<svg version="1.1" baseProfile="tiny" id="Layer_1" xmlns="http://www.w3.org/2000/svg" xmlns:xlink="http://www.w3.org/1999/xlink"
	 x="0px" y="0px" viewBox="0 0 1000 222.6" overflow="visible" xml:space="preserve">
<g transform="translate(-282.22 -311.27)">
	<g transform="matrix(21.017 0 0 -21.017 367.58 493.02)">
		<path fill="#FFFFFF" d="M0,0c-1.1,0-2,0.9-2,2.1c0,1.1,0.9,2.1,2,2.1c0.7,0,1.5-0.3,1.8-1c0,0,0.1-0.1,0.1-0.2V1.2
			c0,0,0-0.1,0-0.1C1.5,0.4,0.8,0,0,0 M3.7-1.6v7.4H1.9V5.2C1.3,5.6,0.7,5.9-0.2,5.9c-2.1,0-3.7-1.7-3.7-3.8c0-2.1,1.6-3.8,3.7-3.8
			c0.9,0,1.5,0.3,2.1,0.8v-0.6H3.7z M11.6-1.6v4c0,2-1.5,3.5-3.5,3.5c-2,0-3.5-1.6-3.5-3.5v-4h1.8v4c0,1,0.7,1.7,1.7,1.7
			c1,0,1.7-0.7,1.7-1.7v-4L11.6-1.6L11.6-1.6z M16.2,0c-1.1,0-2,0.9-2,2.1c0,1.1,0.9,2.1,2,2.1c0.7,0,1.5-0.4,1.8-1
			c0,0,0.1-0.1,0.1-0.2V1.2c0,0,0-0.1,0-0.1C17.7,0.4,17,0,16.2,0 M19.9-1.6V8h-1.8V5.2c-0.5,0.5-1.2,0.8-2.1,0.8
			c-2.1,0-3.7-1.7-3.7-3.8c0-2.1,1.6-3.8,3.7-3.8c0.9,0,1.5,0.3,2.1,0.8v-0.6L19.9-1.6L19.9-1.6z M22.7-1.6v3.9
			c0,1.2,0.6,1.8,1.8,1.8v1.8c-2.3,0-3.6-1.2-3.6-3.6v-3.9L22.7-1.6L22.7-1.6z M28.4,0.1c-1.1,0-2,0.9-2,2c0,1.1,0.9,2,2,2
			c1.1,0,2-0.9,2-2C30.5,1,29.6,0.1,28.4,0.1 M28.4-1.7c2.1,0,3.9,1.7,3.9,3.8c0,2.1-1.7,3.8-3.9,3.8c-2.1,0-3.8-1.7-3.8-3.8
			C24.6,0,26.3-1.7,28.4-1.7 M34,6.3c0.6,0,1.1,0.5,1.1,1.1c0,0.6-0.5,1.1-1.1,1.1C33.5,8.5,33,8,33,7.4C33,6.8,33.5,6.3,34,6.3
			 M35,5.8h-1.8v-7.4H35V5.8z M39.7,0c-1.1,0-2,0.9-2,2.1c0,1.1,0.9,2.1,2,2.1c0.7,0,1.5-0.4,1.8-1c0,0,0.1-0.1,0.1-0.2V1.2
			c0,0,0-0.1,0-0.1C41.1,0.4,40.4,0,39.7,0 M43.3-1.6V8h-1.8V5.2c-0.5,0.5-1.2,0.8-2.1,0.8c-2.1,0-3.7-1.7-3.7-3.8
			c0-2.1,1.6-3.9,3.7-3.9c0.9,0,1.5,0.3,2.1,0.8v-0.6C41.5-1.6,43.3-1.6,43.3-1.6z"/>
	</g>
</g>
</svg>
